src/main/resources/joined.svg

<svg viewBox="0 0 24 24" xmlns="http://www.w3.org/2000/svg"><g fill="#536571"><path d="m19.708 2h-15.416c-1.264 0-2.292 1.028-2.292 2.292v15.416c0 1.264 1.028 2.292 2.292 2.292h15.416c1.264 0 2.292-1.028 2.292-2.292v-15.416c0-1.264-1.028-2.292-2.292-2.292zm.792 17.708c0 .437-.355.792-.792.792h-15.416c-.437 0-.792-.355-.792-.792v-13.29c0-.437.354-.79.79-.792h15.42c.436 0 .79.355.79.79v13.294z"/><circle cx="7.032" cy="8.75" r="1.285"/><circle cx="7.032" cy="13.156" r="1.285"/><circle cx="16.968" cy="8.75" r="1.285"/><circle cx="16.968" cy="13.156" r="1.285"/><circle cx="12" cy="8.75" r="1.285"/><circle cx="12" cy="13.156" r="1.285"/><circle cx="7.032" cy="17.486" r="1.285"/><circle cx="12" cy="17.486" r="1.285"/></g></svg>

<svg version="1.1" viewBox="0,0,24,24" xmlns="http://www.w3.org/2000/svg">
    <g fill="#536571">
        <path
            d="M19.708 2H4.292C3.028 2 2 3.028 2 4.292v15.416C2 20.972 3.028 22 4.292 22h15.416C20.972 22 22 20.972 22 19.708V4.292C22 3.028 20.972 2 19.708 2zm.792 17.708c0 .437-.355.792-.792.792H4.292c-.437 0-.792-.355-.792-.792V6.418c0-.437.354-.79.79-.792h15.42c.436 0 .79.355.79.79V19.71z"/>
        <circle cx="7.032" cy="8.75" r="1.285"/>
        <circle cx="7.032" cy="13.156" r="1.285"/>
        <circle cx="16.968" cy="8.75" r="1.285"/>
        <circle cx="16.968" cy="13.156" r="1.285"/>
        <circle cx="12" cy="8.75" r="1.285"/>
        <circle cx="12" cy="13.156" r="1.285"/>
        <circle cx="7.032" cy="17.486" r="1.285"/>
        <circle cx="12" cy="17.486" r="1.285"/>
    </g>
</svg>
